src/components/content/Icon/functional/circular-economy.svg

<svg width="100" height="100" viewBox="0 0 100 100" fill="none" xmlns="http://www.w3.org/2000/svg">
<path d="M49.244 23.422C34.774 23.422 23 35.196 23 49.666C23 55.642 25.062 61.49 28.808 66.134C29.156 66.564 29.784 66.632 30.214 66.284C30.644 65.936 30.712 65.308 30.364 64.878C26.904 60.59 25 55.188 25 49.666C25 36.298 35.876 25.422 49.244 25.422C62.612 25.422 73.488 36.298 73.488 49.666C73.488 63.034 62.612 73.91 49.244 73.91C43.446 73.91 37.836 71.832 33.446 68.056C33.2449 67.8833 32.9834 67.7975 32.7191 67.8173C32.4547 67.8372 32.209 67.9612 32.036 68.162C31.8633 68.3632 31.7774 68.6246 31.7973 68.889C31.8172 69.1533 31.9411 69.399 32.142 69.572C36.894 73.658 42.968 75.908 49.244 75.908C63.714 75.908 75.488 64.134 75.488 49.664C75.488 35.194 63.714 23.42 49.244 23.42V23.422Z" fill="#0B301A"/>
<path d="M33.5 42.288C33.3781 42.2391 33.2478 42.2147 33.1165 42.2162C32.9852 42.2177 32.8555 42.245 32.7348 42.2967C32.6141 42.3483 32.5047 42.4232 32.4129 42.5171C32.3212 42.6111 32.2488 42.7221 32.2 42.844C30.57 46.914 30.452 51.444 31.872 55.598C33.456 60.238 36.754 63.984 41.156 66.144C43.712 67.398 46.462 68.032 49.228 68.032C51.226 68.032 53.232 67.702 55.178 67.038C59.818 65.454 63.564 62.156 65.724 57.754C67.884 53.352 68.202 48.372 66.616 43.732C65.032 39.092 61.734 35.346 57.332 33.186C52.93 31.026 47.95 30.708 43.31 32.294C39.89 33.462 36.918 35.586 34.718 38.436C34.6378 38.5399 34.5788 38.6586 34.5444 38.7853C34.51 38.9119 34.5009 39.0441 34.5176 39.1743C34.5343 39.3045 34.5765 39.4301 34.6418 39.544C34.7071 39.6579 34.7941 39.7578 34.898 39.838C35.0019 39.9183 35.1205 39.9773 35.2472 40.0117C35.3739 40.046 35.5061 40.0551 35.6363 40.0384C35.7665 40.0217 35.8921 39.9795 36.006 39.9142C36.1198 39.849 36.2198 39.7619 36.3 39.658C38.258 37.12 40.906 35.228 43.954 34.186C48.088 32.774 52.526 33.056 56.448 34.982C60.37 36.908 63.308 40.244 64.72 44.38C66.132 48.516 65.85 52.952 63.924 56.874C61.998 60.796 58.662 63.734 54.526 65.146C50.392 66.558 45.954 66.276 42.032 64.35C38.11 62.424 35.172 59.088 33.76 54.952C32.4958 51.2509 32.5994 47.2194 34.052 43.588C34.258 43.076 34.008 42.494 33.496 42.288H33.5Z" fill="#0B301A"/>
<path d="M52.322 41.138C53.706 41.638 54.908 42.434 55.9 43.506C56.0803 43.7007 56.3304 43.8158 56.5954 43.8263C56.8605 43.8368 57.1189 43.7418 57.314 43.562C57.72 43.188 57.744 42.554 57.37 42.148C56.176 40.856 54.666 39.856 53.002 39.256C47.262 37.184 40.908 40.168 38.838 45.908C37.834 48.688 37.974 51.692 39.23 54.368C40.486 57.044 42.71 59.07 45.49 60.072C46.716 60.514 47.988 60.736 49.254 60.736C50.858 60.736 52.456 60.382 53.95 59.68C56.626 58.424 58.652 56.2 59.654 53.42C60.5095 51.0437 60.5285 48.4466 59.708 46.058C59.528 45.536 58.958 45.258 58.436 45.44C57.914 45.62 57.636 46.19 57.818 46.712C58.5 48.688 58.484 50.772 57.774 52.742C56.078 57.444 50.872 59.888 46.17 58.192C43.892 57.37 42.072 55.71 41.042 53.518C40.012 51.326 39.898 48.864 40.72 46.588C42.416 41.886 47.624 39.442 52.324 41.138H52.322Z" fill="#0B301A"/>
</svg>

<svg xmlns="http://www.w3.org/2000/svg" width="100" height="100" fill="none" viewBox="0 0 100 100"><path fill="#0b301a" d="M49.244 23.422C34.774 23.422 23 35.196 23 49.666a26.3 26.3 0 0 0 5.808 16.468 1 1 0 0 0 1.406.15 1 1 0 0 0 .15-1.406A24.3 24.3 0 0 1 25 49.666c0-13.368 10.876-24.244 24.244-24.244s24.244 10.876 24.244 24.244S62.612 73.91 49.244 73.91a24.23 24.23 0 0 1-15.798-5.854 1.001 1.001 0 0 0-1.304 1.516 26.24 26.24 0 0 0 17.102 6.336c14.47 0 26.244-11.774 26.244-26.244S63.714 23.42 49.244 23.42z"/><path fill="#0b301a" d="M33.5 42.288a1 1 0 0 0-1.3.556 18.36 18.36 0 0 0-.328 12.754 18.23 18.23 0 0 0 9.284 10.546 18.3 18.3 0 0 0 8.072 1.888c1.998 0 4.004-.33 5.95-.994a18.23 18.23 0 0 0 10.546-9.284 18.24 18.24 0 0 0 .892-14.022 18.23 18.23 0 0 0-9.284-10.546 18.24 18.24 0 0 0-14.022-.892 18.3 18.3 0 0 0-8.592 6.142 1 1 0 0 0 .918 1.602 1 1 0 0 0 .664-.38 16.3 16.3 0 0 1 7.654-5.472 16.25 16.25 0 0 1 12.494.796 16.25 16.25 0 0 1 8.272 9.398 16.25 16.25 0 0 1-.796 12.494 16.25 16.25 0 0 1-9.398 8.272 16.25 16.25 0 0 1-12.494-.796 16.25 16.25 0 0 1-8.272-9.398 16.36 16.36 0 0 1 .292-11.364 1 1 0 0 0-.556-1.3z"/><path fill="#0b301a" d="M52.322 41.138a9 9 0 0 1 3.578 2.368 1.002 1.002 0 0 0 1.47-1.358 11.1 11.1 0 0 0-4.368-2.892c-5.74-2.072-12.094.912-14.164 6.652a11 11 0 0 0 .392 8.46 10.99 10.99 0 0 0 6.26 5.704c1.226.442 2.498.664 3.764.664 1.604 0 3.202-.354 4.696-1.056a10.99 10.99 0 0 0 5.704-6.26c.855-2.376.874-4.973.054-7.362a1 1 0 0 0-1.272-.618c-.522.18-.8.75-.618 1.272a8.97 8.97 0 0 1-.044 6.03c-1.696 4.702-6.902 7.146-11.604 5.45a9 9 0 0 1-5.128-4.674 9 9 0 0 1-.322-6.93c1.696-4.702 6.904-7.146 11.604-5.45z"/></svg>
